X:98
%%vocalfont Baskerville10Pro 11
%%pagewidth 7in
T:Pescod time
M:6/8
L:1/8
K:G
%%score 1 2
V:1 clef-treble
V:2 clef-bass octave=-1
V:1
D|[B,G]2[CA][DB]2[B,G]|[DB]2[CA][B,G]2[EB]|[Ec]2[D=FB][CEA]2[B,E^G]|
w:In Peas-cod time, when hound to horn Gives ear, till buck be
V:2
z|G6-|G3-G2^G|A2DE3|
V:1
[CEA]3-[CEA]2[CEA]|[Ec]2[Ec][DAd]2c|[DGB]2[CFA][B,G]2[FB]|(BA)G G2F&Ex2[A,D]3|[B,DG]3-[B,DG]2||
w:kill'd:* And lit-tle lads, with pipes of corn, Sat keep-*ing beasts a-field.*
V:2
A,2EA3-|A2G^F3|G2DE2D|C3D3|G,3-G,2||

%%%%vocalfont Baskerville10Pro 14
%%%%pagewidth 6.6in
%%%%staffscale 1.0
